icons/breezeLight/actions/22/zoom-out.svg

<svg viewBox="0 0 22 22" xmlns="http://www.w3.org/2000/svg"><path d="m3 3v7h1v-6h14v14h-6v1h7v-1-14-1h-15zm11.292969 4-3.292969 3.292969v-2.292969h-1v4h1 3v-1h-2.292969l3.292969-3.2929688zm-11.292969 6v2h1v-1h1v-1zm4 0v1h1v1h1v-2zm-4 4v2h2v-1h-1v-1zm5 0v1h-1v1h2v-2z" fill="#4d4d4d"/></svg>

<svg xmlns="http://www.w3.org/2000/svg" viewBox="0 0 22 22">
  <defs id="defs3051">
    <style type="text/css" id="current-color-scheme">
      .ColorScheme-Text {
        color:#4d4d4d;
      }
      </style>
  </defs>
 <path 
     style="fill:currentColor;fill-opacity:1;stroke:none" 
     d="M 3 3 L 3 10 L 4 10 L 4 4 L 18 4 L 18 18 L 12 18 L 12 19 L 19 19 L 19 18 L 19 4 L 19 3 L 4 3 L 3 3 z M 14.292969 7 L 11 10.292969 L 11 8 L 10 8 L 10 12 L 11 12 L 14 12 L 14 11 L 11.707031 11 L 15 7.7070312 L 14.292969 7 z M 3 13 L 3 15 L 4 15 L 4 14 L 5 14 L 5 13 L 3 13 z M 7 13 L 7 14 L 8 14 L 8 15 L 9 15 L 9 13 L 7 13 z M 3 17 L 3 19 L 5 19 L 5 18 L 4 18 L 4 17 L 3 17 z M 8 17 L 8 18 L 7 18 L 7 19 L 9 19 L 9 17 L 8 17 z "
	 class="ColorScheme-Text"
     />
</svg>
